src/ex12_js_dom/images/logo.svg

<svg width="45" height="45" viewBox="0 0 45 45" fill="none" xmlns="http://www.w3.org/2000/svg">
<path d="M37.2656 11.6016H17.5781V13.0078H37.2656V11.6016Z" fill="white"/>
<path d="M37.2656 21.7969H17.5781V23.2031H37.2656V21.7969Z" fill="white"/>
<path d="M37.2656 31.9922H17.5781V33.3984H37.2656V31.9922Z" fill="white"/>
<path d="M11.9531 10.1953C12.7266 10.1953 13.3594 10.8281 13.3594 11.6016V13.0078C13.3594 13.7812 12.7266 14.4141 11.9531 14.4141H10.5469C9.77344 14.4141 9.14062 13.7812 9.14062 13.0078V11.6016C9.14062 10.8281 9.77344 10.1953 10.5469 10.1953H11.9531ZM11.9531 8.78906H10.5469C9 8.78906 7.73438 10.0547 7.73438 11.6016V13.0078C7.73438 14.5547 9 15.8203 10.5469 15.8203H11.9531C13.5 15.8203 14.7656 14.5547 14.7656 13.0078V11.6016C14.7656 10.0547 13.5 8.78906 11.9531 8.78906Z" fill="white"/>
<path d="M11.9531 20.3906C12.7266 20.3906 13.3594 21.0234 13.3594 21.7969V23.2031C13.3594 23.9766 12.7266 24.6094 11.9531 24.6094H10.5469C9.77344 24.6094 9.14062 23.9766 9.14062 23.2031V21.7969C9.14062 21.0234 9.77344 20.3906 10.5469 20.3906H11.9531ZM11.9531 18.9844H10.5469C9 18.9844 7.73438 20.25 7.73438 21.7969V23.2031C7.73438 24.75 9 26.0156 10.5469 26.0156H11.9531C13.5 26.0156 14.7656 24.75 14.7656 23.2031V21.7969C14.7656 20.25 13.5 18.9844 11.9531 18.9844Z" fill="white"/>
<path d="M11.9531 30.5859C12.7266 30.5859 13.3594 31.2188 13.3594 31.9922V33.3984C13.3594 34.1719 12.7266 34.8047 11.9531 34.8047H10.5469C9.77344 34.8047 9.14062 34.1719 9.14062 33.3984V31.9922C9.14062 31.2188 9.77344 30.5859 10.5469 30.5859H11.9531ZM11.9531 29.1797H10.5469C9 29.1797 7.73438 30.4453 7.73438 31.9922V33.3984C7.73438 34.9453 9 36.2109 10.5469 36.2109H11.9531C13.5 36.2109 14.7656 34.9453 14.7656 33.3984V31.9922C14.7656 30.4453 13.5 29.1797 11.9531 29.1797Z" fill="white"/>
</svg>

<svg width="45" height="45" fill="none" xmlns="http://www.w3.org/2000/svg"><path d="M37.266 11.602H17.578v1.406h19.688v-1.406zM37.266 21.797H17.578v1.406h19.688v-1.406zM37.266 31.992H17.578v1.406h19.688v-1.406zM11.953 10.195a1.41 1.41 0 011.406 1.407v1.406a1.41 1.41 0 01-1.406 1.406h-1.406a1.41 1.41 0 01-1.406-1.406v-1.406a1.41 1.41 0 011.406-1.407h1.406zm0-1.406h-1.406a2.82 2.82 0 00-2.813 2.813v1.406a2.82 2.82 0 002.813 2.812h1.406a2.82 2.82 0 002.813-2.812v-1.406a2.82 2.82 0 00-2.813-2.813zM11.953 20.39a1.41 1.41 0 011.406 1.407v1.406a1.41 1.41 0 01-1.406 1.406h-1.406a1.41 1.41 0 01-1.406-1.406v-1.406a1.41 1.41 0 011.406-1.406h1.406zm0-1.406h-1.406a2.82 2.82 0 00-2.813 2.813v1.406a2.82 2.82 0 002.813 2.813h1.406a2.82 2.82 0 002.813-2.813v-1.406a2.82 2.82 0 00-2.813-2.813zM11.953 30.586a1.41 1.41 0 011.406 1.406v1.406a1.41 1.41 0 01-1.406 1.407h-1.406a1.41 1.41 0 01-1.406-1.407v-1.406a1.41 1.41 0 011.406-1.406h1.406zm0-1.406h-1.406a2.82 2.82 0 00-2.813 2.812v1.406a2.82 2.82 0 002.813 2.813h1.406a2.82 2.82 0 002.813-2.813v-1.406a2.82 2.82 0 00-2.813-2.812z" fill="#fff"/></svg>
